!!!!SEGMENT: pl-wumfc--n44032_maszynski-piotr--wesele-op-40-no-6.krn
!!!cenid: 18xx:4173
!!!COM: Maszyński, Piotr
!!!COM-rismID: pe41023858
!!!CDT:
!!!CNT:
!!!OTL: Wesele op. 40 No. 6
!!!PDT: 1899
!!!AGN:
!!!SMS-siglum: PL-Wumfc
!!!SMS-shelfmark: N44032
!!!SMS-shelfwork: W
!!!SMS-variant:
!!!SMS-altvar:
!!!NIFC-rismSourceID: 1001177589
!!!NIFC-rismChildID: 1001177589
!!!NIFC-islandoraID: pl-wumfc:9424
!!!URL-pdf-islandora: https://repozytorium.nifc.pl/islandora/object/pl-wumfc%3A9424/datastream/PDF/view
!!!URL-scan: https://polish.musicsources.pl/pl/lokalizacje/galeria/druki-muzyczne/12480/1 @EN{Scan on Polish Music Sources Website} @PL{Skany w portalu Dziedzictwo Muzyki Polskiej w otwartym dostępie}
!!!ONB-nifc:
!!!AIN: 1 empty 1 forte
!!!key:
**kern	**kern	**dynam	**kern	**text	**text	**dynam
*part2	*part2	*part2	*part1	*part1	*part1	*part1
*staff3	*staff2	*	*staff1	*staff1	*staff1	*
*Iforte	*Iforte	*	*Iempty	*	*	*
*I"Fortepian.	*I"Fortepian.	*	*I"Śpiew.	*	*	*
*>[A,A,B]	*>[A,A,B]	*	*>[A,A,B]	*	*	*
*>A	*>A	*	*>A	*	*	*
*ICklav	*ICklav	*	*ICvox	*	*	*
*IGacmp	*IGacmp	*	*IGsolo	*	*	*
*clefF4	*clefG2	*	*clefG2	*	*	*
*k[]	*k[]	*	*k[]	*	*	*
*C:	*C:	*	*C:	*	*	*
*M2/4	*M2/4	*	*M2/4	*	*	*
=1	=1	=1	=1	=1	=1	=1
!!LO:TX:a:B:t=Allegro vivo.
!	!LO:TX:a:i:t=con allegrezza	!	!	!	!	!
8c\L	8e'/L 8cc	f	2r	.	.	.
8G\	8e'/J 8g	.	.	.	.	.
.	(8qa/	.	.	.	.	.
8C\	4e/) 4g	.	.	.	.	.
8G\J	.	.	.	.	.	.
=2	=2	=2	=2	=2	=2	=2
8c\L	8d#X'/L 8f#X	.	2r	.	.	.
8G\	8e'/J 8g	.	.	.	.	.
.	(8qa/	.	.	.	.	.
8C\	4e/) 4g	.	.	.	.	.
8G\J	.	.	.	.	.	.
=3	=3	=3	=3	=3	=3	=3
8c\L	8e'/L 8cc	>	2r	.	.	.
8G\	8e'/J 8g	.	.	.	.	.
.	(8qa/	.	.	.	.	.
8C\	4e/) 4g	.	.	.	.	.
8G\J	.	.	.	.	.	.
=4	=4	=4	=4	=4	=4	=4
8c\L	8d#X'/L 8f#X	.	2r	.	.	.
8G\	8e'/J 8g	.	.	.	.	.
.	(8qa/	.	.	.	.	.
8C\	4e/) 4g	]]	.	.	.	.
8G\J	.	.	.	.	.	.
=5	=5	=5	=5	=5	=5	=5
!	!	!	!	!	!	!LO:DY:a
8c\L	8d/L	mf	8cc\	A	Ró-	f
8G\	8f/ 8a 8cc	.	8cc\	jak	-wnem	.
8C\	8d/	.	8cc\	my	po-	.
8G\J	8f/J 8a 8cc	.	8cc\	się	-lem	.
!!LO:LB:g=original
=6	=6	=6	=6	=6	=6	=6
8c\L	8d/L	.	8d/	roz-	gra-	.
8E\	8f/ 8a 8cc	.	8e/	-hu-	-nie	.
8F\	8d/	.	8f/	-la-	le-	.
8A\J	8f/J 8a 8cc	.	8a/	-li,	-ci,	.
=7	=7	=7	=7	=7	=7	=7
8c\L	8d/L	.	8g/	To	Wy-	.
8G\	8f/ 8g 8b	.	8b\	za-	-szły	.
8C\	8e/	.	8cc\	-je-	na	.
8G\J	8a/J 8cc	.	8a/	-dziem	próg	.
=8	=8	=8	=8	=8	=8	=8
8c\L	8d/L	.	8d/	jesz-	wiej-	.
8E\	8f/ 8a 8cc	.	8e/	-cze	-skie	.
8F\	8d/	.	8f/	da-	dzie-	.
8A\J	8f/J 8a 8cc	.	8a/	-lej,	-ci,	.
=9	=9	=9	=9	=9	=9	=9
8B'\L	8d/L	.	8g/	Jak	Rów-	.
8G'\J	8f/ 8b	.	8b/	się	-nem	.
4C~>/	8d/	.	[4dd\	o-	po-	.
.	8f/J 8b	.	.	.	.	.
=10	=10	=10	=10	=10	=10	=10
8B'\L	8d/L	.	8dd\]	.	.	.
8G'\J	8f/J 8b	.	8b\	-stro	-lem,	.
4C~>/	8e/L	.	8cc\	pu-	niz-	.
.	8a/J 8cc	.	8a/	-ścim	-kim	.
!!LO:LB:g=original
=11	=11	=11	=11	=11	=11	=11
8B'\L	8f/L	.	4f/	z gó-	ga-	.
8G'\J	8b/J 8dd	.	.	.	.	.
4C~>/	8a\L	.	4d/	-ry,	-jem:	.
.	8dd\J 8ff	.	.	.	.	.
=12	=12	=12	=12	=12	=12	=12
!	!	!	!	!	!	!LO:DY:a
8G\L	8b\L	>	8f/	To	Ka-	>
8F\	8ff\J 8aa	.	8a/	za-	-się	.
8E\	8cc\L	.	[4g/	-je-	dzi-	]
8D\J	8gg\J 8ccc	.	.	.	.	.
=13	=13	=13	=13	=13	=13	=13
*	*^	*	*	*	*	*
!	!	!	!	!	!	!	!LO:DY:a
8C/	4raayy	8ee\L	]]	8g/]	.	.	<
8r	.	8gg\J	.	8g/	-dziem	-siaj	.
4G\	8bb/L	4ff\	<	8b\	na	za	.
.	8ddd/J	.	.	8dd\	Ma-	mąż	[[
=14	=14	=14	=14	=14	=14	=14	=14
8A\L	4.ccc/	8ff\L	.	4cc\	-zu-	da-	.
8B\	.	8gg\	.	.	.	.	.
8c\	.	8ee\J	.	8cc\	-ry!	-jem!	.
8d\J	8raa	8rcyy	.	8r	.	.	.
*clefG2	*	*	*	*	*	*	*
=15	=15	=15	=15	=15	=15	=15	=15
8e/L	4.gg/	8cc\L	.	2r	.	.	.
8f#X/	.	8dd\J	.	.	.	.	.
8g/	.	8.b\L	.	.	.	.	.
8d/J	8raa	.	.	.	.	.	.
.	.	[>16dd\Jk	.	.	.	.	.
!!LO:LB:g=original
=16	=16	=16	=16	=16	=16	=16	=16
8b/L	2ryy	16dd\KL]	.	2r	.	.	.
.	.	8gg\	.	.	.	.	.
8d/	.	.	.	.	.	.	.
.	.	8dd\	.	.	.	.	.
8g/	.	.	.	.	.	.	.
.	.	8gg\	.	.	.	.	.
8a/J	.	.	.	.	.	.	.
.	.	16aa\Jk	.	.	.	.	.
*	*v	*v	*	*	*	*	*
=17	=17	=17	=17	=17	=17	=17
!	!	!	!	!	!	!LO:DY:a
8e'/L 8g	8b'\L 8gg 8bb	f	8b\	Na	Przy-	f
8e-X'/ 8g 8a	8cc'\ 8gg 8ccc	.	8cc\	Ma-	-je-	.
8d'/ 8g 8a	8dd'\ 8gg 8ddd	.	[4dd\	-zu-	-cha-	.
8d'/J 8g 8a	8dd'\J 8gg 8ddd	.	.	.	.	.
=18	=18	=18	=18	=18	=18	=18
8d'/L 8g 8a	8dd'\L 8gg 8ddd	.	4dd\]	.	.	.
8d'/J 8g 8a	8dd'\J 8gg 8ddd	.	.	.	.	.
*clefF4	*	*	*	*	*	*
8c'\L 8d	8a'\L 8ff#X 8aa	.	4a/	-rach	-li	.
8c'\J 8d	8a'\J 8ff# 8aa	.	.	.	.	.
=19	=19	=19	=19	=19	=19	=19
8B\L 8d	8b\L 8gg 8bb	.	8b\	sła-	prze-	.
8A#X\ 8c#X 8d	8cc#X\ 8gg 8ccc#X	.	8cc#X\	-wne	-de	.
8An\ 8cn 8d	8dd\ 8ff#X 8ddd	.	[4dd\	go-	wro-	.
8A\J 8c 8d	8dd\J 8ff# 8ddd	.	.	.	.	.
=20	=20	=20	=20	=20	=20	=20
8A\L 8c 8d	8dd\L 8ff#X 8ddd	.	4dd\]	.	.	.
8A\J 8c 8d	8dd\J 8ff# 8ddd	.	.	.	.	.
8F#X\L 8c 8d	8a\L 8dd 8aa	.	8a/	-dy:	-ta,	.
8F#\J 8c 8d	8a\J 8dd 8aa	.	8r	.	.	.
!!LO:PB:g=original
=21	=21	=21	=21	=21	=21	=21
8G\L 8B 8d	8b\L 8dd 8bb	.	4b/	Prze-	Wi-	.
8G\J 8B 8d	8b\J 8dd 8bb	.	.	.	.	.
8BB\L 8B	8g\L 8dd 8gg	.	4g/	-gryź	-ta-	.
8BB\J 8B	8g\J 8dd 8gg	.	.	.	.	.
=22	=22	=22	=22	=22	=22	=22
8C\L 8c	8g\L 8cc 8ee	.	8e/	chle-	-ła	.
8C\J 8c	8g\J 8cc 8ee	.	8a/	-ba,	ich	.
8D\L 8c	8f#X/L 8a 8dd	.	8f#X/	po-	srze-	.
8D\J 8c	8f#/J 8a 8dd	.	8d/	-pij	-cha	.
=23	=23	=23	=23	=23	=23	=23
*	*^	*	*	*	*	*
(8GG\L	[<4dd/	(4b\ (4bb	.	4b/	wo-	zło-	.
8D\	.	.	.	.	.	.	.
8G\	8dd/]	8g\) 8gg)	.	4g/	-dy,	-ta,	.
8D\J)	8raa	8rcyy	.	.	.	.	.
*	*v	*v	*	*	*	*	*
=24	=24	=24	=24	=24	=24	=24
*^	*	*	*	*	*	*
4rc	(>8GG\L	4r	.	4r	.	.	.
.	8D\	.	.	.	.	.	.
!	!	!	!	!	!	!	!LO:DY:a
4A/	8A\	8ee\L	<	8e/	Prze-	Zło-	<
.	8D\J	8dd\J 8ff#X	.	8f#X/	-gryź	-ta	.
=25	=25	=25	=25	=25	=25	=25	=25
4rc	8GG\L	8cc\L 8aa	.	8a/	chle-	strze-	.
.	8D\	8ff#X\J 8ccc	.	8cc\	-ba	-cha,	.
4c/	8c\	[4ee\ [4eee	[	[4ee\	ra-	dach	[[
.	8D\J	.	.	.	.	.	.
*v	*v	*	*	*	*	*	*
!!LO:LB:g=original
=26	=26	=26	=26	=26	=26	=26
8GG\L	4ee\] 4eee]	>	4ee\]	.	.	.
8D\	.	.	.	.	.	.
!	!	!	!	!	!	!LO:DY:a
8c\	4cc\ 4aa 4ccc	.	4cc\	-zo-	sło-	>
8D\J	.	.	.	.	.	.
=27	=27	=27	=27	=27	=27	=27
8GG\L	4b\ 4gg 4bb	.	4b/	-we-	-mia-	.
8D\	.	.	.	.	.	.
8B\	8g\ 8gg	]	8g/	-go,	-ny,	.
8D\J)	8r	.	8r	.	.	]]
=28	=28	=28	=28	=28	=28	=28
(8GG\L	4r	.	4r	.	.	.
8D\	.	.	.	.	.	.
!	!	!	!	!	!	!LO:DY:a
8B\	(8d/L 8dd	<	8d/	Po-	Wy-	<
8D\J	8e/J 8ee	.	8e/	-pij	-bie-	.
=29	=29	=29	=29	=29	=29	=29
8GG\L	8f#X\L 8cc 8ff#X	.	8f#X/	zdro-	-lo-	.
8D\	8a\J 8aa	.	8a/	-ju	-ne	.
8A\	[4cc\ [4ee [4ccc	[	[4cc\	kry-	cud-	[
8D\J	.	.	.	.	.	.
=30	=30	=30	=30	=30	=30	=30
8GG\L	4cc\] 4ee] 4ccc]	.	4cc\]	.	.	.
8D\	.	.	.	.	.	.
8A\	4cc\ 4ee 4ccc	.	4ccM\	-nicz-	-nie	.
8D\J	.	.	.	.	.	.
!!LO:LB:g=original
=31	=31	=31	=31	=31	=31	=31
*	*^	*	*	*	*	*
8GG\L	(4bb/	4.b\ 4.dd	>	4b/	-ne-	ścia-	.
8D\	.	.	.	.	.	.	.
8B\	8gg/))	.	.	8g/	-go!	-ny.	.
8D\J)	8raa	8rc	.	8r	.	.	.
*	*v	*v	*	*	*	*	*
=32	=32	=32	=32	=32	=32	=32
8G\L	4r	]	2r	.	.	.
(8g\	.	.	.	.	.	.
8f#X\	(8a\L 8aa	.	.	.	.	.
8fn\J)	8b\J 8bb	<	.	.	.	.
=33	=33	=33	=33	=33	=33	=33
(8d\L	8dd\L 8ddd	.	2r	.	.	.
8B\	8ff\J 8fff	.	.	.	.	.
8G\	[4aa\ [4fff [4aaa	[	.	.	.	.
8B\J	.	.	.	.	.	.
*clefG2	*	*	*	*	*	*
=34	=34	=34	=34	=34	=34	=34
8d/L	4aa\] 4fff] 4aaa]	.	2r	.	.	.
8g/	.	.	.	.	.	.
8a/	4ff\ 4ddd 4fff	>	.	.	.	.
8b/J	.	.	.	.	.	.
=35	=35	=35	=35	=35	=35	=35
8cc/L	(4ee\ 4ccc 4eee	.	2r	.	.	.
8g/	.	.	.	.	.	.
8e/	8cc\)) 8ccc	]	.	.	.	.
8c/J)	8r	.	.	.	.	.
*clefF4	*	*	*	*	*	*
=36	=36	=36	=36	=36	=36	=36
(8e\L	4r	.	2r	.	.	.
8c\	.	.	.	.	.	.
8G\	(8g\L 8gg	<	.	.	.	.
8E\J)	8a\J 8aa	.	.	.	.	.
!!LO:LB:g=original
=37	=37	=37	=37	=37	=37	=37
*^	*	*	*	*	*	*
2G/	8G\L	8b\L 8bb	.	2r	.	.	.
.	8GG\	8dd\J 8ddd	.	.	.	.	.
.	8GG\	[4ff\ [4aa [4fff	[	.	.	.	.
.	8GG\J	.	.	.	.	.	.
=38	=38	=38	=38	=38	=38	=38	=38
4G#X/	8G#\L	8ff\L] 8aa] 8fff]	.	2r	.	.	.
!	!	!LO:TX:b:i:t=rall.	!	!	!	!	!
.	8GGn\J	8ff\J 8ddd	.	.	.	.	.
4A/	8A\L	8aa\L 8fff	.	.	.	.	.
.	8GG\J	8ff\J 8ddd	.	.	.	.	.
=39	=39	=39	=39	=39	=39	=39	=39
4A#X/	8A#\L	8aan\L 8fff	>	2r	.	.	.
.	8GG\J	8ff\J 8ddd	.	.	.	.	.
[4B/	8B\L	8aa\L 8fff	.	.	.	.	.
.	[8GG\J	8ff\J 8ddd	.	.	.	.	.
=40	=40	=40	=40	=40	=40	=40	=40
2B/]	2GG\]	8aa\L 8fff	.	2r	.	.	.
.	.	8ff\J 8ddd	.	.	.	.	.
.	.	8aa\L 8fff	.	.	.	.	.
.	.	8ff\J) 8ddd	]]	.	.	.	.
*v	*v	*	*	*	*	*	*
=41	=41	=41	=41	=41	=41	=41
!	!LO:TX:b:i:t=a tempo	!	!	!	!	!
8c\L	8ee'\L 8ccc	.	2r	.	.	.
8G\	8ee'\J 8gg	.	.	.	.	.
.	(8qaa/	.	.	.	.	.
8C\	4ee\) 4gg	.	.	.	.	.
8G\J	.	.	.	.	.	.
=42	=42	=42	=42	=42	=42	=42
8c\L	8dd#X'\L 8ff#X	.	2r	.	.	.
8G\	8ee'\J 8gg	.	.	.	.	.
.	(8qaa/	.	.	.	.	.
8C\	4ee\) 4gg	.	.	.	.	.
8G\J	.	.	.	.	.	.
=43	=43	=43	=43	=43	=43	=43
8c\L	8e'/L 8cc	.	2r	.	.	.
8G\	8e'/J 8g	.	.	.	.	.
.	(8qa/	.	.	.	.	.
8C\	4e/) 4g	.	.	.	.	.
8G\J	.	.	.	.	.	.
!!LO:PB:g=original
=44	=44	=44	=44	=44	=44	=44
8c\L	8d#X'/L 8f#X	.	2r	.	.	.
8G\	8e'/J 8g	.	.	.	.	.
.	(8qa/	.	.	.	.	.
8C\	4e/) 4g	.	.	.	.	.
8G\J	.	.	.	.	.	.
=45	=45	=45	=45	=45	=45	=45
!	!	!	!	!	!	!LO:DY:a
8c\L	8d/L	mf	8cc\	Od	A	f
8G\	8f/ 8a 8cc	.	8cc\	za-	wi-	.
8C\	8d/	.	8cc\	-piec-	-taj-	.
8G\J	8f/J 8a 8cc	.	8cc\	-ka,	-cie	.
=46	=46	=46	=46	=46	=46	=46
8c\L	8d/L	.	8d/	do	goś-	.
8E\	8f/J 8a 8cc	.	8e/	za-	-cie	.
8F\	8d/L	.	8f/	-piec-	mi-	.
8A\J	8f/J 8a 8cc	.	8a/	-ka	-li,	.
=47	=47	=47	=47	=47	=47	=47
8c\L	8d/L	.	8g/	I-	Coś-	.
8G\	8f/J 8g 8b	.	8b\	-dzie	-cie	.
8C\	8e/L	.	8cc\	dro-	do	.
8G\J	8a/J 8cc	.	8a/	-ga	nas	.
=48	=48	=48	=48	=48	=48	=48
8c\L	8d/L	.	8d/	ma-	tu	.
8E\	8f/J 8a 8cc	.	8e/	-zo-	przy-	.
8F\	8d/L	.	8f/	-wiec-	-by-	.
8A\J	8f/J 8a 8cc	.	8a/	-ka,	-li	.
!!LO:LB:g=original
=49	=49	=49	=49	=49	=49	=49
8B'\L	8d/L	.	8g/	Od	Za-	.
8G'\J	8f/J 8b	.	8b\	ko-	-baw-	.
4C~/	8d/L	.	[4dd\	-mi-	-cież	.
.	8f/J 8b	.	.	.	.	.
=50	=50	=50	=50	=50	=50	=50
8B'\L	8d/L	.	8dd\]	.	.	.
8G'\J	8f/J 8b	.	8b\	-na	się	.
4C~/	8e/L	.	8cc\	do	ma-	.
.	8a/J 8cc	.	8a/	ko-	-ło	.
=51	=51	=51	=51	=51	=51	=51
8B'\L	8f/L	.	4f/	-mi-	wie-	.
8G'\J	8b/J 8dd	.	.	.	.	.
4C~/	8a\L	.	4d/	-na,	-le,	.
.	8dd\J 8ff	.	.	.	.	.
=52	=52	=52	=52	=52	=52	=52
!	!	!	!	!	!	!LO:DY:a
8G\L	8b\L	<	8f/	Na	Jak	<
8F\	8ff\J 8aa	.	8a/	skrzy-	we-	.
8E\	8cc\L	.	[4g/	-pecz-	-se-	.
8D\J	8gg\J 8ccc	.	.	.	.	.
=53	=53	=53	=53	=53	=53	=53
*	*^	*	*	*	*	*
8C/	4raayy	8ee\L	.	8g/]	.	.	.
8r	.	8gg\J	.	8g/	-kach	-le,	.
4G\	8bb/L	4ff\	.	8b\	Stach	to	.
.	8ddd/J	.	.	8dd\	wy-	we-	.
*	*v	*v	*	*	*	*	*
!!LO:LB:g=original
=54	=54	=54	=54	=54	=54	=54
*	*	*	*^	*	*	*
8C\ 8c	8ee\L 8ccc	f	8cc\	8rcyy	-rzy-	-se-	.
*clefG2	*	*	*	*	*	*	*
8c/L 8cc	8eee\	.	8ee\	8rcyy	-na,	-le,	.
8c/ 8b	8gg\ 8ggg	.	8gg/	8g\	na	jak	.
8c/J 8a	8ccc\J	.	8cc\	8rcyy	skrzy-	we-	.
*	*	*	*v	*v	*	*	*
=55	=55	=55	=55	=55	=55	=55
8c/L 8g	8b\L 8bb	.	8b\	-pecz-	-se-	.
8c/ 8f	8a\ 8aa	.	8a/	-kach	-le,	.
8c/ 8e	8g\ 8gg	.	8g/	Stach	to	.
8c/J 8d 8f	8b\J 8dd	.	8dd\	wy-	we-	.
=56	=56	=56	=56	=56	=56	=56
*	*^	*	*	*	*	*
4c/ 4e 4g	4raayy	8cc\L	f	2cc\	-rzy-	-se-	.
.	.	(16ee\L	.	.	.	.	.
.	.	16ff\JJ	.	.	.	.	.
*clefF4	*	*	*	*	*	*	*
8C\L 8E 8G	[4ee/	16gg\LL	.	.	.	.	.
.	.	16aa\	.	.	.	.	.
8C\J 8E 8G	.	16gg\	.	.	.	.	.
.	.	16ff#X\JJ	.	.	.	.	.
=57	=57	=57	=57	=57	=57	=57	=57
8C\L 8E 8G	8ee/])	8gg\L	.	8cc\	-na!	-le!	.
8C\J 8E 8G	8raayy	(16cc\L	.	8r	.	.	.
.	.	16dd\JJ	.	.	.	.	.
8C\L 8E 8G#X	4raayy	16ee\LL	.	4r	.	.	.
.	.	16dd\	.	.	.	.	.
8C\J 8E 8G#	.	16cc\	.	.	.	.	.
.	.	16b\JJ)	.	.	.	.	.
*	*v	*v	*	*	*	*	*
=58	=58	=58	=58	=58	=58	=58
8C\L 8E 8A	[4a/	>	2r	.	.	.
8C\ 8E 8A	.	.	.	.	.	.
8C\ 8E 8A	(16a/LL]	.	.	.	.	.
.	16b/	.	.	.	.	.
8C\J 8E 8A	16cc/	.	.	.	.	.
.	16b/JJ	]]	.	.	.	.
!!LO:LB:g=original
=59	=59	=59	=59	=59	=59	=59
8C\L 8E 8A	16a/LL	.	2r	.	.	.
.	16b/	.	.	.	.	.
8C\ 8E 8A	16cc/	.	.	.	.	.
.	16b/JJ	.	.	.	.	.
8C\ 8E 8A	16a/LL	.	.	.	.	.
.	16g/	.	.	.	.	.
8C\J 8E 8A	16f/	.	.	.	.	.
.	16e/JJ	.	.	.	.	.
=60	=60	=60	=60	=60	=60	=60
8C\L 8D 8F 8A	([4d/)	.	2r	.	.	.
8C\ 8D 8F 8A	.	.	.	.	.	.
8C\ 8D 8F 8A	16d/LL]	.	.	.	.	.
.	16f/	.	.	.	.	.
8C\J 8D 8F 8A	16a/	.	.	.	.	.
.	16cc/JJ)	.	.	.	.	.
=61	=61	=61	=61	=61	=61	=61
8C\L 8D 8F 8G	([4b/	<	2r	.	.	.
8C\ 8D 8F 8G	.	.	.	.	.	.
8C\ 8D 8F 8G	16b/LL]	.	.	.	.	.
.	16g/	.	.	.	.	.
8C\J 8D 8F 8G	16b/	.	.	.	.	.
.	16dd/JJ)	.	.	.	.	.
=62	=62	=62	=62	=62	=62	=62
8C\L 8E 8G	(16cc\LL	.	2r	.	.	.
.	16ee\	.	.	.	.	.
8C\J 8D 8F 8G	16gg\	.	.	.	.	.
.	16g\JJ	.	.	.	.	.
8C\L 8E 8G	(16cc\LL)	.	.	.	.	.
.	16ee\	.	.	.	.	.
8C\J 8D 8F 8G	16gg\	.	.	.	.	.
.	16g\JJ)	[[	.	.	.	.
=63:|!	=63:|!	=63:|!	=63:|!	=63:|!	=63:|!	=63:|!
*>B	*>B	*	*>B	*	*	*
8C\L 8E 8G	(16cc\LL	ff	2r	.	.	.
.	16ee\	.	.	.	.	.
8C\J 8D 8F 8G	16gg\	.	.	.	.	.
.	16g\JJ	.	.	.	.	.
8C\L 8E 8G	(16cc\LL)	.	.	.	.	.
.	16ee\	.	.	.	.	.
8C\J 8D 8F 8G	16gg\	.	.	.	.	.
.	16g\JJ)	.	.	.	.	.
=64	=64	=64	=64	=64	=64	=64
8C\ 8E 8G	8cc\	.	2r	.	.	.
8r	8r	.	.	.	.	.
*clefG2	*	*	*	*	*	*
8c/ 8e 8g	8cc\ 8ee 8gg 8ccc	.	.	.	.	.
8r	8r	.	.	.	.	.
*clefF4	*	*	*	*	*	*
=65	=65	=65	=65	=65	=65	=65
2CC\ 2C	2E<;/ 2G< 2c<	.	2r	.	.	.
==	==	==	==	==	==	==
*-	*-	*-	*-	*-	*-	*-
!!!system-decoration: p1{(p2)}
!!!ENC: Solarz Mateusz
!!!END: 2022-09-08
!!!ENC: Kamil Watkowski
!!!END: 2022-09-22
!!!RDF**kern: > = above
!!!RDF**kern: < = below
!!!YEC: Copyright 2022 Narodowy Instytut Fryderyka Chopina (https://polishscores.org)
!!!YEM: License CC-BY-4.0 (https://creativecommons.org/licenses/by/4.0)
